lib/healthicons/icons/solid/specialties/finance_dept.svg

<svg fill="none" height="48" viewBox="0 0 48 48" width="48" xmlns="http://www.w3.org/2000/svg"><g fill="#333"><path clip-rule="evenodd" d="m9 6c-1.65685 0-3 1.34315-3 3v30c0 1.6569 1.34315 3 3 3h30c1.6569 0 3-1.3431 3-3v-30c0-1.65685-1.3431-3-3-3zm8 4c-1.1046 0-2 .8954-2 2v24c0 1.1046.8954 2 2 2h14c1.1046 0 2-.8954 2-2v-24c0-1.1046-.8954-2-2-2z" fill-rule="evenodd"/><path d="m17 12h14v9h-14z"/><path d="m21.2727 24.6364c0 .9037-.7326 1.6363-1.6363 1.6363-.9038 0-1.6364-.7326-1.6364-1.6363 0-.9038.7326-1.6364 1.6364-1.6364.9037 0 1.6363.7326 1.6363 1.6364z"/><path d="m25.6364 24.6364c0 .9037-.7327 1.6363-1.6364 1.6363s-1.6364-.7326-1.6364-1.6363c0-.9038.7327-1.6364 1.6364-1.6364s1.6364.7326 1.6364 1.6364z"/><path d="m30 24.6364c0 .9037-.7326 1.6363-1.6364 1.6363-.9037 0-1.6363-.7326-1.6363-1.6363 0-.9038.7326-1.6364 1.6363-1.6364.9038 0 1.6364.7326 1.6364 1.6364z"/><path d="m21.2727 29c0 .9037-.7326 1.6364-1.6363 1.6364-.9038 0-1.6364-.7327-1.6364-1.6364s.7326-1.6364 1.6364-1.6364c.9037 0 1.6363.7327 1.6363 1.6364z"/><path d="m25.6364 29c0 .9037-.7327 1.6364-1.6364 1.6364s-1.6364-.7327-1.6364-1.6364.7327-1.6364 1.6364-1.6364 1.6364.7327 1.6364 1.6364z"/><path d="m30 29c0 .9037-.7326 1.6364-1.6364 1.6364-.9037 0-1.6363-.7327-1.6363-1.6364s.7326-1.6364 1.6363-1.6364c.9038 0 1.6364.7327 1.6364 1.6364z"/><path d="m30 33.3636c0 .9038-.7326 1.6364-1.6364 1.6364-.9037 0-1.6363-.7326-1.6363-1.6364 0-.9037.7326-1.6363 1.6363-1.6363.9038 0 1.6364.7326 1.6364 1.6363z"/><path d="m18 33.3636c0-.9037.7326-1.6363 1.6364-1.6363h4.3636c.9037 0 1.6364.7326 1.6364 1.6363 0 .9038-.7327 1.6364-1.6364 1.6364h-4.3636c-.9038 0-1.6364-.7326-1.6364-1.6364z"/></g></svg>

<svg width="48" height="48" viewBox="0 0 48 48" fill="none" xmlns="http://www.w3.org/2000/svg">
<path fill-rule="evenodd" clip-rule="evenodd" d="M9 6C7.34315 6 6 7.34315 6 9V39C6 40.6569 7.34315 42 9 42H39C40.6569 42 42 40.6569 42 39V9C42 7.34315 40.6569 6 39 6H9ZM17 10C15.8954 10 15 10.8954 15 12V36C15 37.1046 15.8954 38 17 38H31C32.1046 38 33 37.1046 33 36V12C33 10.8954 32.1046 10 31 10H17Z" fill="#333333"/>
<path d="M17 12H31V21H17V12Z" fill="#333333"/>
<path d="M21.2727 24.6364C21.2727 25.5401 20.5401 26.2727 19.6364 26.2727C18.7326 26.2727 18 25.5401 18 24.6364C18 23.7326 18.7326 23 19.6364 23C20.5401 23 21.2727 23.7326 21.2727 24.6364Z" fill="#333333"/>
<path d="M25.6364 24.6364C25.6364 25.5401 24.9037 26.2727 24 26.2727C23.0963 26.2727 22.3636 25.5401 22.3636 24.6364C22.3636 23.7326 23.0963 23 24 23C24.9037 23 25.6364 23.7326 25.6364 24.6364Z" fill="#333333"/>
<path d="M30 24.6364C30 25.5401 29.2674 26.2727 28.3636 26.2727C27.4599 26.2727 26.7273 25.5401 26.7273 24.6364C26.7273 23.7326 27.4599 23 28.3636 23C29.2674 23 30 23.7326 30 24.6364Z" fill="#333333"/>
<path d="M21.2727 29C21.2727 29.9037 20.5401 30.6364 19.6364 30.6364C18.7326 30.6364 18 29.9037 18 29C18 28.0963 18.7326 27.3636 19.6364 27.3636C20.5401 27.3636 21.2727 28.0963 21.2727 29Z" fill="#333333"/>
<path d="M25.6364 29C25.6364 29.9037 24.9037 30.6364 24 30.6364C23.0963 30.6364 22.3636 29.9037 22.3636 29C22.3636 28.0963 23.0963 27.3636 24 27.3636C24.9037 27.3636 25.6364 28.0963 25.6364 29Z" fill="#333333"/>
<path d="M30 29C30 29.9037 29.2674 30.6364 28.3636 30.6364C27.4599 30.6364 26.7273 29.9037 26.7273 29C26.7273 28.0963 27.4599 27.3636 28.3636 27.3636C29.2674 27.3636 30 28.0963 30 29Z" fill="#333333"/>
<path d="M30 33.3636C30 34.2674 29.2674 35 28.3636 35C27.4599 35 26.7273 34.2674 26.7273 33.3636C26.7273 32.4599 27.4599 31.7273 28.3636 31.7273C29.2674 31.7273 30 32.4599 30 33.3636Z" fill="#333333"/>
<path d="M18 33.3636C18 32.4599 18.7326 31.7273 19.6364 31.7273H24C24.9037 31.7273 25.6364 32.4599 25.6364 33.3636C25.6364 34.2674 24.9037 35 24 35H19.6364C18.7326 35 18 34.2674 18 33.3636Z" fill="#333333"/>
</svg>
